X: 334
T: OPEN THE DOOR SOFTLY
T: Fuasgail an doras
B: O'Neill's 334
M: 6/8
L: 1/8
Z: 1999 by John Chambers <jc@trillian.mit.edu>
N: "Tenderly"
K:D
   DDE   FAB  | =c>dc  BDD  |  DFA   ABc  | d3 F3 |
| (dBd) (cBA) | (GFG) (A2B) | (AFD) (DEF) | E3 D2d |
|  dBd   cBA  |  GFG   ABB  |  AFD   DEF  | E3 D3 ||


